images/UpgradeGraphics/BCHUpgrades_Icons/valueOverflowIncident.svg

<svg xmlns="http://www.w3.org/2000/svg" fill="none" viewBox="0 0 529.66 683.53" xmlns:v="https://vecta.io/nano"><path fill="#13b3d3" d="M0 511.135l264.829-137.58 264.829 137.58-264.829 137.58z"/><path transform="matrix(.887397 .461006 0 1 0 511.135)" fill="url(#C)" d="M0 0h298.434v34.815H0z"/><path transform="matrix(.887397 -.461006 0 1 264.188 648.714)" fill="url(#C)" d="M0 0h298.434v34.815H0z"/><rect width="182.487" height="183.944" rx="32" transform="matrix(.887397 -.461006 .887397 .461006 100.641 510.799)" fill="#84ffd4" style="mix-blend-mode:screen"/><path transform="matrix(.902729 -.430209 .902729 .430209 135.477 331.323)" fill="url(#D)" d="M0 0h144.718v144.718H0z"/><path transform="matrix(.902729 .430209 0 1 136.43 331.323)" fill="url(#E)" d="M0 0h144.718v124.518H0z"/><path transform="matrix(.902729 -.430209 0 1 265.805 393.188)" fill="url(#E)" d="M0 0h144.718v124.518H0z"/><g filter="url(#A)"><path d="M155.864 413.276v-14l6.069 3.153c1.562.811 2.734 1.753 3.515 2.825.792 1.079 1.189 2.165 1.189 3.258 0 .733-.16 1.29-.479 1.671-.32.368-.758.553-1.314.558s-1.195-.181-1.917-.556l.338-.645a8.3 8.3 0 0 1 2.076 1.519c.604.594 1.071 1.256 1.402 1.988.343.739.515 1.515.515 2.328 0 1.2-.42 1.922-1.26 2.165-.84.23-2.077-.079-3.71-.927l-6.424-3.337zm2.857-.956l3.354 1.743c.746.387 1.308.545 1.687.475.39-.077.585-.415.585-1.015 0-.587-.195-1.122-.585-1.605-.379-.49-.941-.928-1.687-1.315l-3.567-1.854v-2.36l3.071 1.595c.698.363 1.23.506 1.597.43.378-.083.568-.405.568-.965 0-.546-.19-1.051-.568-1.515-.367-.47-.899-.887-1.597-1.25l-2.858-1.484v9.12zm10.714 8.006v-14l2.875 1.493v11.36l6.229 3.237v2.64l-9.104-4.73zm16.537 8.831a12.02 12.02 0 0 1-2.733-1.96c-.828-.79-1.55-1.672-2.165-2.645-.604-.967-1.077-1.979-1.42-3.037-.331-1.053-.497-2.099-.497-3.139s.166-1.914.497-2.621c.343-.702.822-1.22 1.437-1.554s1.337-.465 2.166-.395 1.727.358 2.697.862a11.59 11.59 0 0 1 2.698 1.941c.828.79 1.544 1.669 2.148 2.636.615.973 1.094 1.988 1.437 3.047.343 1.045.515 2.094.515 3.147 0 1.04-.172 1.918-.515 2.633-.343.701-.822 1.219-1.437 1.553-.604.326-1.32.454-2.148.384-.816-.064-1.71-.348-2.68-.852zm-.018-2.769c.556.289 1.065.446 1.527.473.473.032.887-.059 1.242-.275s.627-.547.816-.996c.202-.442.302-.996.302-1.663s-.1-1.326-.302-1.977c-.189-.645-.461-1.26-.816-1.844-.343-.578-.751-1.097-1.225-1.556a6.55 6.55 0 0 0-1.544-1.122c-.556-.289-1.07-.45-1.544-.482-.461-.027-.869.068-1.224.283s-.633.545-.834.987c-.19.448-.284 1.006-.284 1.673 0 .653.094 1.309.284 1.967.201.651.473 1.266.816 1.844a7.86 7.86 0 0 0 1.242 1.566 6.57 6.57 0 0 0 1.544 1.122zm14.904 10.502c-.958-.498-1.852-1.135-2.68-1.912-.816-.784-1.526-1.659-2.13-2.626s-1.076-1.98-1.419-3.038c-.332-1.052-.497-2.105-.497-3.158s.165-1.934.497-2.642c.343-.702.816-1.222 1.419-1.562.616-.334 1.332-.462 2.148-.385.816.064 1.71.349 2.68.853a11.52 11.52 0 0 1 2.911 2.152 12.16 12.16 0 0 1 2.2 2.983l-1.845.961c-.426-.768-.9-1.42-1.42-1.958-.521-.55-1.089-.985-1.704-1.305-.58-.301-1.112-.471-1.597-.509s-.906.049-1.26.265-.634.544-.835.987c-.189.448-.284 1.005-.284 1.672s.095 1.323.284 1.968a8.25 8.25 0 0 0 .835 1.853c.354.584.774 1.109 1.26 1.575s1.017.848 1.597 1.149c.615.32 1.183.482 1.704.485.52-.009.994-.183 1.42-.522l1.845 2.879c-.591.506-1.325.745-2.2.717-.864-.022-1.84-.316-2.929-.882zm9.644 1.571l-.159-3.823 5.945-3.972 3.195 1.66-5.36 3.715-1.597 1.091-2.024 1.329zm-2.573 1.863v-14l2.857 1.484v14l-2.857-1.484zm8.501 4.416l-4.419-8.396 1.881-1.322 5.893 11.461-3.355-1.743z" fill="#fff"/></g><g filter="url(#B)"><path d="M292.634 446.891l4.991-15.387.743 1.009-6.673 3.511 1.275-2.19v3.8l-2.549 1.341v-4.92l9.93-5.225v2.1l-4.602 14.322-3.115 1.639zm7.693-6.988v-2.18l5.841-11.954 3.009-1.583-5.717 11.888-1.398.276 9.752-5.131v2.64l-11.487 6.044zm6.673-.571v-2.94l.089-2.687v-2.62l2.708-1.425v8.2L307 439.332zm11.212-5.659c-1.133.596-2.118.847-2.956.755-.826-.099-1.463-.544-1.911-1.334s-.673-1.94-.673-3.447c0-1.613.265-3.119.796-4.519.543-1.405 1.287-2.65 2.231-3.733.955-1.09 2.053-1.96 3.292-2.612a8.91 8.91 0 0 1 1.894-.757c.601-.156 1.121-.189 1.557-.099l-1.062 2.939a2.07 2.07 0 0 0-1.097.037c-.39.098-.797.259-1.222.483-1.073.565-1.923 1.378-2.548 2.441s-.938 2.313-.938 3.753v.8c.011.287.047.562.106.824l-.797-.421c.225-.638.514-1.223.868-1.756.354-.546.773-1.033 1.256-1.461a7.91 7.91 0 0 1 1.629-1.137c.802-.422 1.522-.621 2.159-.596s1.145.264 1.522.719c.39.448.584 1.113.584 1.993 0 .946-.212 1.885-.637 2.815a9.28 9.28 0 0 1-1.681 2.505c-.697.739-1.487 1.342-2.372 1.808zm-.159-2.337a4.1 4.1 0 0 0 1.062-.798 3.9 3.9 0 0 0 .743-1.132c.177-.413.265-.826.265-1.239 0-.64-.194-1.044-.584-1.213-.377-.188-.885-.114-1.522.221a3.96 3.96 0 0 0-1.115.867c-.318.341-.572.721-.761 1.14-.177.4-.265.806-.265 1.22 0 .4.088.713.265.94.177.214.425.33.743.349.319.006.708-.113 1.169-.355zm9.906-2.792c-.861.453-1.716.777-2.566.97-.85.181-1.569.186-2.159.016l1.115-3.066c.472.138 1.02.156 1.646.054s1.256-.322 1.894-.657c.719-.379 1.286-.837 1.699-1.374s.619-1.086.619-1.646c0-.533-.183-.857-.548-.971s-.956.043-1.77.471l-1.31.689v-2.14l3.451-6.236.319.993-6.496 3.417v-2.6l8.673-4.563v2.1l-3.434 6.227-1.451-.176.832-.438c1.522-.801 2.672-1.02 3.451-.656s1.168 1.152 1.168 2.365c0 .787-.183 1.623-.548 2.509-.366.872-.927 1.721-1.682 2.545s-1.723 1.546-2.903 2.167zm11.59-6.098c-1.038.546-1.947.851-2.726.914-.779.05-1.386-.13-1.823-.541-.436-.423-.655-1.068-.655-1.935s.213-1.712.638-2.535c.436-.843 1.044-1.623 1.823-2.34.778-.729 1.693-1.37 2.743-1.923 1.062-.559 1.982-.883 2.761-.973.791-.109 1.398.031 1.823.421.437.37.655.989.655 1.855s-.218 1.742-.655 2.625c-.436.87-1.05 1.693-1.841 2.469-.778.756-1.693 1.41-2.743 1.963zm0-2.38c.72-.379 1.286-.857 1.699-1.434.425-.584.637-1.189.637-1.815s-.212-1.002-.637-1.125c-.413-.143-.979-.025-1.699.354-.708.372-1.268.847-1.681 1.425-.413.564-.62 1.159-.62 1.786s.207 1.011.62 1.154.973.027 1.681-.345zm0-4.34c-.956.503-1.794.797-2.513.882-.708.08-1.263-.055-1.664-.404-.389-.369-.584-.946-.584-1.733a5.36 5.36 0 0 1 .602-2.437c.401-.811.961-1.566 1.681-2.264a10.35 10.35 0 0 1 2.478-1.804c.956-.503 1.788-.774 2.496-.813.719-.059 1.28.106 1.681.495.413.37.62.968.62 1.794 0 .787-.201 1.572-.602 2.357-.39.765-.944 1.483-1.664 2.155s-1.563 1.263-2.531 1.772zm0-1.9c.602-.317 1.074-.718 1.416-1.205.354-.493.531-1.006.531-1.539 0-.56-.183-.898-.549-1.012-.354-.12-.82-.028-1.398.276-.566.298-1.027.693-1.381 1.186a2.66 2.66 0 0 0-.531 1.58c0 .533.172.863.514.99s.808.034 1.398-.276z" fill="#fff"/></g><path d="M125.392 137l136.167 72.092L404 137v377.625l-3.765 8.01-7.53 5.721-16.942 9.155-35.767 17.737-36.395 19.453-18.825 7.438L265.951 585l-20.08-1.144-18.824-7.438-37.65-20.026-35.14-18.309-20.08-9.727-8.785-6.866-4.392-8.582L125.392 137z" fill="#fff" fill-opacity=".21"/><path fill="#13b3d3" d="M0 137.58L264.829 0l264.829 137.58-264.829 137.58z"/><rect width="182.487" height="183.944" rx="32" transform="matrix(.887397 -.461006 .887397 .461006 99.1641 136.748)" fill="#84ffd4" style="mix-blend-mode:screen"/><path transform="matrix(.887397 .461006 0 1 0 136.709)" fill="url(#F)" fill-opacity=".39" d="M0 0h298.434v374.353H0z"/><path transform="matrix(.887397 -.461006 0 1 264.188 275.159)" fill="url(#F)" fill-opacity=".39" d="M0 0h298.434v374.353H0z"/><defs><filter id="A" x="151.867" y="399.036" width="71.914" height="55.687" filterUnits="userSpaceOnUse" color-interpolation-filters="sRGB"><feFlood flood-opacity="0" result="A"/><feColorMatrix in="SourceAlpha" values="0 0 0 0 0 0 0 0 0 0 0 0 0 0 0 0 0 0 127 0" result="B"/><feOffset dy="4"/><feGaussianBlur stdDeviation="2"/><feComposite in2="B" operator="out"/><feColorMatrix values="0 0 0 0 0 0 0 0 0 0 0 0 0 0 0 0 0 0 0.25 0"/><feBlend in2="A"/><feBlend in="SourceGraphic"/></filter><filter id="B" x="286.422" y="405.209" width="62.367" height="51.085" filterUnits="userSpaceOnUse" color-interpolation-filters="sRGB"><feFlood flood-opacity="0" result="A"/><feColorMatrix in="SourceAlpha" values="0 0 0 0 0 0 0 0 0 0 0 0 0 0 0 0 0 0 127 0" result="B"/><feOffset dy="4"/><feGaussianBlur stdDeviation="2"/><feComposite in2="B" operator="out"/><feColorMatrix values="0 0 0 0 0 0 0 0 0 0 0 0 0 0 0 0 0 0 0.25 0"/><feBlend in2="A"/><feBlend in="SourceGraphic"/></filter><linearGradient id="C" x1="-.231" y1="17.834" x2="23.434" y2="-63.301" href="#G"><stop stop-color="#13b3d3"/><stop offset="1" stop-color="#13edb1"/></linearGradient><linearGradient id="D" x1="72.359" y1="0" x2="72.359" y2="144.718" href="#G"><stop stop-color="#13edb1"/><stop offset="1" stop-color="#13b3d3"/></linearGradient><linearGradient id="E" x1="72.359" y1="0" x2="72.359" y2="124.518" href="#G"><stop stop-color="#13edb1"/><stop offset="1" stop-color="#13b3d3"/></linearGradient><linearGradient id="F" x1="149.217" y1="0" x2="149.217" y2="374.353" href="#G"><stop stop-color="#13edb1"/><stop offset="1" stop-color="#17edfe"/></linearGradient><linearGradient id="G" gradientUnits="userSpaceOnUse"/></defs></svg>

<svg xmlns="http://www.w3.org/2000/svg" fill="none" viewBox="0 0 529.66 683.53">
<g id="Group 93">
<rect id="Rectangle 180" width="298.434" height="298.434" transform="matrix(0.887397 -0.461006 0.887397 0.461006 0 511.135)" fill="#13B3D3"/>
<rect id="Rectangle 183" width="298.434" height="34.8146" transform="matrix(0.887397 0.461006 0 1 0 511.135)" fill="url(#paint0_linear_149_7)"/>
<rect id="Rectangle 184" width="298.434" height="34.8146" transform="matrix(0.887397 -0.461006 0 1 264.188 648.714)" fill="url(#paint1_linear_149_7)"/>
<g id="Rectangle 185" style="mix-blend-mode:screen">
<rect width="182.487" height="183.944" rx="32" transform="matrix(0.887397 -0.461006 0.887397 0.461006 100.641 510.799)" fill="#84FFD4"/>
</g>
<g id="Group 45">
<rect id="Rectangle 187" width="144.718" height="144.718" transform="matrix(0.902729 -0.430209 0.902729 0.430209 135.477 331.323)" fill="url(#paint2_linear_149_7)"/>
<rect id="Rectangle 188" width="144.718" height="124.518" transform="matrix(0.902729 0.430209 0 1 136.43 331.323)" fill="url(#paint3_linear_149_7)"/>
<rect id="Rectangle 189" width="144.718" height="124.518" transform="matrix(0.902729 -0.430209 0 1 265.805 393.188)" fill="url(#paint4_linear_149_7)"/>
</g>
<g id="BLOCK" filter="url(#filter0_d_149_7)">
<path d="M155.864 413.276V399.276L161.933 402.429C163.495 403.24 164.667 404.182 165.448 405.254C166.24 406.333 166.637 407.419 166.637 408.512C166.637 409.245 166.477 409.802 166.158 410.183C165.838 410.551 165.4 410.736 164.844 410.741C164.288 410.745 163.649 410.56 162.927 410.185L163.265 409.54C164.046 409.946 164.738 410.452 165.341 411.059C165.945 411.653 166.412 412.315 166.743 413.047C167.086 413.786 167.258 414.562 167.258 415.375C167.258 416.575 166.838 417.297 165.998 417.54C165.158 417.77 163.921 417.461 162.288 416.613L155.864 413.276ZM158.721 412.32L162.075 414.063C162.821 414.45 163.383 414.608 163.762 414.538C164.152 414.461 164.347 414.123 164.347 413.523C164.347 412.936 164.152 412.401 163.762 411.918C163.383 411.428 162.821 410.99 162.075 410.603L158.508 408.749V406.389L161.579 407.984C162.277 408.347 162.809 408.49 163.176 408.414C163.554 408.331 163.744 408.009 163.744 407.449C163.744 406.903 163.554 406.398 163.176 405.934C162.809 405.464 162.277 405.047 161.579 404.684L158.721 403.2V412.32ZM169.435 420.326V406.326L172.31 407.819V419.179L178.539 422.416V425.056L169.435 420.326ZM185.972 429.157C184.99 428.647 184.079 427.993 183.239 427.197C182.411 426.407 181.689 425.525 181.074 424.552C180.47 423.585 179.997 422.573 179.654 421.515C179.323 420.462 179.157 419.416 179.157 418.376C179.157 417.336 179.323 416.462 179.654 415.755C179.997 415.053 180.476 414.535 181.091 414.201C181.707 413.868 182.428 413.736 183.257 413.806C184.085 413.877 184.984 414.164 185.954 414.668C186.936 415.178 187.836 415.825 188.652 416.609C189.48 417.399 190.196 418.278 190.8 419.245C191.415 420.218 191.894 421.233 192.237 422.292C192.58 423.337 192.752 424.386 192.752 425.439C192.752 426.479 192.58 427.357 192.237 428.072C191.894 428.773 191.415 429.291 190.8 429.625C190.196 429.951 189.48 430.079 188.652 430.009C187.836 429.945 186.942 429.661 185.972 429.157ZM185.954 426.388C186.51 426.677 187.019 426.834 187.481 426.861C187.954 426.893 188.368 426.802 188.723 426.586C189.078 426.37 189.35 426.039 189.539 425.59C189.741 425.148 189.841 424.594 189.841 423.927C189.841 423.26 189.741 422.601 189.539 421.95C189.35 421.305 189.078 420.69 188.723 420.106C188.38 419.528 187.972 419.009 187.498 418.55C187.025 418.091 186.51 417.717 185.954 417.428C185.398 417.139 184.884 416.978 184.41 416.946C183.949 416.919 183.541 417.014 183.186 417.229C182.831 417.445 182.553 417.774 182.352 418.216C182.162 418.664 182.068 419.222 182.068 419.889C182.068 420.542 182.162 421.198 182.352 421.856C182.553 422.507 182.825 423.122 183.168 423.7C183.523 424.285 183.937 424.806 184.41 425.266C184.884 425.725 185.398 426.099 185.954 426.388ZM200.858 436.89C199.9 436.392 199.006 435.755 198.178 434.978C197.362 434.194 196.652 433.319 196.048 432.352C195.445 431.385 194.972 430.372 194.629 429.314C194.297 428.262 194.132 427.209 194.132 426.156C194.132 425.103 194.297 424.222 194.629 423.514C194.972 422.812 195.445 422.292 196.048 421.952C196.664 421.618 197.38 421.49 198.196 421.567C199.012 421.631 199.906 421.916 200.876 422.42C201.953 422.979 202.923 423.696 203.787 424.572C204.662 425.44 205.396 426.434 205.987 427.555L204.142 428.516C203.716 427.748 203.242 427.096 202.722 426.558C202.201 426.008 201.633 425.573 201.018 425.253C200.438 424.952 199.906 424.782 199.421 424.744C198.935 424.705 198.515 424.793 198.161 425.009C197.806 425.224 197.527 425.553 197.326 425.996C197.137 426.444 197.042 427.001 197.042 427.668C197.042 428.335 197.137 428.991 197.326 429.636C197.527 430.287 197.806 430.904 198.161 431.489C198.515 432.073 198.935 432.598 199.421 433.064C199.906 433.529 200.438 433.912 201.018 434.213C201.633 434.533 202.201 434.695 202.722 434.698C203.242 434.689 203.716 434.515 204.142 434.176L205.987 437.055C205.396 437.561 204.662 437.8 203.787 437.772C202.923 437.75 201.947 437.456 200.858 436.89ZM210.502 438.461L210.343 434.638L216.288 430.666L219.483 432.326L214.123 436.041L212.526 437.132L210.502 438.461ZM207.929 440.324V426.324L210.786 427.808V441.808L207.929 440.324ZM216.43 444.74L212.011 436.344L213.892 435.022L219.785 446.483L216.43 444.74Z" fill="white"/>
</g>
<g id="74638" filter="url(#filter1_d_149_7)">
<path d="M292.634 446.891L297.625 431.504L298.368 432.513L291.695 436.024L292.97 433.834V437.634L290.421 438.975V434.055L300.351 428.83V430.93L295.749 445.252L292.634 446.891ZM300.327 439.903V437.723L306.168 425.769L309.177 424.186L303.46 436.074L302.062 436.35L311.814 431.219V433.859L300.327 439.903ZM307 439.332V436.392L307.089 433.705V431.085L309.797 429.66V437.86L307 439.332ZM318.212 433.673C317.079 434.269 316.094 434.52 315.256 434.428C314.43 434.329 313.793 433.884 313.345 433.094C312.896 432.303 312.672 431.154 312.672 429.647C312.672 428.034 312.937 426.528 313.468 425.128C314.011 423.723 314.755 422.478 315.699 421.395C316.654 420.305 317.752 419.435 318.991 418.783C319.651 418.435 320.283 418.183 320.885 418.026C321.486 417.87 322.006 417.837 322.442 417.927L321.38 420.866C321.038 420.779 320.672 420.791 320.283 420.903C319.893 421.001 319.486 421.162 319.061 421.386C317.988 421.951 317.138 422.764 316.513 423.827C315.887 424.889 315.575 426.14 315.575 427.58C315.575 427.82 315.575 428.087 315.575 428.38C315.586 428.667 315.622 428.942 315.681 429.204L314.884 428.783C315.109 428.145 315.398 427.56 315.752 427.027C316.106 426.481 316.525 425.994 317.008 425.566C317.504 425.118 318.047 424.739 318.637 424.429C319.439 424.007 320.159 423.808 320.796 423.833C321.433 423.858 321.941 424.097 322.318 424.552C322.708 425 322.902 425.665 322.902 426.545C322.902 427.491 322.69 428.43 322.265 429.36C321.852 430.271 321.292 431.105 320.584 431.865C319.887 432.604 319.097 433.207 318.212 433.673ZM318.053 431.336C318.454 431.125 318.808 430.859 319.115 430.538C319.433 430.197 319.681 429.82 319.858 429.406C320.035 428.993 320.123 428.58 320.123 428.167C320.123 427.527 319.929 427.123 319.539 426.954C319.162 426.766 318.654 426.84 318.017 427.175C317.592 427.398 317.221 427.687 316.902 428.042C316.584 428.383 316.33 428.763 316.141 429.182C315.964 429.582 315.876 429.988 315.876 430.402C315.876 430.802 315.964 431.115 316.141 431.342C316.318 431.556 316.566 431.672 316.884 431.691C317.203 431.697 317.592 431.578 318.053 431.336ZM327.959 428.544C327.098 428.997 326.243 429.321 325.393 429.514C324.543 429.695 323.824 429.7 323.234 429.53L324.349 426.464C324.821 426.602 325.369 426.62 325.995 426.518C326.62 426.415 327.251 426.196 327.889 425.861C328.608 425.482 329.175 425.024 329.588 424.487C330.001 423.95 330.207 423.401 330.207 422.841C330.207 422.308 330.024 421.984 329.659 421.87C329.293 421.756 328.703 421.913 327.889 422.341L326.579 423.03V420.89L330.03 414.654L330.349 415.647L323.853 419.064V416.464L332.526 411.901V414.001L329.092 420.228L327.641 420.052L328.473 419.614C329.995 418.813 331.145 418.594 331.924 418.958C332.703 419.321 333.092 420.11 333.092 421.323C333.092 422.11 332.909 422.946 332.544 423.832C332.178 424.704 331.617 425.553 330.862 426.377C330.107 427.201 329.139 427.923 327.959 428.544ZM339.549 422.446C338.511 422.992 337.602 423.297 336.823 423.36C336.044 423.41 335.437 423.23 335 422.819C334.564 422.396 334.345 421.751 334.345 420.884C334.345 420.017 334.558 419.172 334.983 418.349C335.419 417.506 336.027 416.726 336.806 416.009C337.584 415.28 338.499 414.639 339.549 414.086C340.611 413.527 341.531 413.203 342.31 413.113C343.101 413.004 343.708 413.144 344.133 413.534C344.57 413.904 344.788 414.523 344.788 415.389C344.788 416.256 344.57 417.131 344.133 418.014C343.697 418.884 343.083 419.707 342.292 420.483C341.514 421.239 340.599 421.893 339.549 422.446ZM339.549 420.066C340.269 419.687 340.835 419.209 341.248 418.632C341.673 418.048 341.885 417.443 341.885 416.817C341.885 416.19 341.673 415.815 341.248 415.692C340.835 415.549 340.269 415.667 339.549 416.046C338.841 416.418 338.281 416.893 337.868 417.471C337.455 418.035 337.248 418.63 337.248 419.257C337.248 419.883 337.455 420.268 337.868 420.411C338.281 420.553 338.841 420.438 339.549 420.066ZM339.549 415.726C338.593 416.229 337.755 416.523 337.036 416.608C336.328 416.688 335.773 416.553 335.372 416.204C334.983 415.835 334.788 415.258 334.788 414.471C334.788 413.644 334.988 412.832 335.39 412.034C335.791 411.223 336.351 410.468 337.071 409.77C337.791 409.058 338.617 408.456 339.549 407.966C340.505 407.463 341.337 407.192 342.045 407.153C342.764 407.094 343.325 407.259 343.726 407.648C344.139 408.018 344.346 408.616 344.346 409.442C344.346 410.229 344.145 411.014 343.744 411.799C343.354 412.564 342.8 413.282 342.08 413.954C341.36 414.626 340.517 415.217 339.549 415.726ZM339.549 413.826C340.151 413.509 340.623 413.108 340.965 412.621C341.319 412.128 341.496 411.615 341.496 411.082C341.496 410.522 341.313 410.184 340.947 410.07C340.593 409.95 340.127 410.042 339.549 410.346C338.983 410.644 338.522 411.039 338.168 411.532C337.814 412.025 337.637 412.552 337.637 413.112C337.637 413.645 337.809 413.975 338.151 414.102C338.493 414.228 338.959 414.136 339.549 413.826Z" fill="white"/>
</g>
<path id="Rectangle 190" d="M125.392 137L261.559 209.092L404 137V514.625L400.235 522.635L392.705 528.356L375.763 537.511L339.996 555.248L303.601 574.701L284.776 582.139L265.951 585L245.871 583.856L227.047 576.418L189.397 556.392L154.257 538.083L134.177 528.356L125.392 521.49L121 512.908L125.392 137Z" fill="white" fill-opacity="0.21"/>
<rect id="Rectangle 179" width="298.434" height="298.434" transform="matrix(0.887397 -0.461006 0.887397 0.461006 0 137.58)" fill="#13B3D3"/>
<g id="Rectangle 186" style="mix-blend-mode:screen">
<rect width="182.487" height="183.944" rx="32" transform="matrix(0.887397 -0.461006 0.887397 0.461006 99.1641 136.748)" fill="#84FFD4"/>
</g>
<rect id="Rectangle 181" width="298.434" height="374.353" transform="matrix(0.887397 0.461006 0 1 0 136.709)" fill="url(#paint5_linear_149_7)" fill-opacity="0.39"/>
<rect id="Rectangle 182" width="298.434" height="374.353" transform="matrix(0.887397 -0.461006 0 1 264.188 275.159)" fill="url(#paint6_linear_149_7)" fill-opacity="0.39"/>
</g>
<defs>
<filter id="filter0_d_149_7" x="151.867" y="399.036" width="71.9141" height="55.687" filterUnits="userSpaceOnUse" color-interpolation-filters="sRGB">
<feFlood flood-opacity="0" result="BackgroundImageFix"/>
<feColorMatrix in="SourceAlpha" type="matrix" values="0 0 0 0 0 0 0 0 0 0 0 0 0 0 0 0 0 0 127 0" result="hardAlpha"/>
<feOffset dy="4"/>
<feGaussianBlur stdDeviation="2"/>
<feComposite in2="hardAlpha" operator="out"/>
<feColorMatrix type="matrix" values="0 0 0 0 0 0 0 0 0 0 0 0 0 0 0 0 0 0 0.25 0"/>
<feBlend mode="normal" in2="BackgroundImageFix" result="effect1_dropShadow_149_7"/>
<feBlend mode="normal" in="SourceGraphic" in2="effect1_dropShadow_149_7" result="shape"/>
</filter>
<filter id="filter1_d_149_7" x="286.422" y="405.209" width="62.3672" height="51.0854" filterUnits="userSpaceOnUse" color-interpolation-filters="sRGB">
<feFlood flood-opacity="0" result="BackgroundImageFix"/>
<feColorMatrix in="SourceAlpha" type="matrix" values="0 0 0 0 0 0 0 0 0 0 0 0 0 0 0 0 0 0 127 0" result="hardAlpha"/>
<feOffset dy="4"/>
<feGaussianBlur stdDeviation="2"/>
<feComposite in2="hardAlpha" operator="out"/>
<feColorMatrix type="matrix" values="0 0 0 0 0 0 0 0 0 0 0 0 0 0 0 0 0 0 0.25 0"/>
<feBlend mode="normal" in2="BackgroundImageFix" result="effect1_dropShadow_149_7"/>
<feBlend mode="normal" in="SourceGraphic" in2="effect1_dropShadow_149_7" result="shape"/>
</filter>
<linearGradient id="paint0_linear_149_7" x1="-0.23148" y1="17.8342" x2="23.4344" y2="-63.3006" gradientUnits="userSpaceOnUse">
<stop stop-color="#13B3D3"/>
<stop offset="1" stop-color="#13EDB1"/>
</linearGradient>
<linearGradient id="paint1_linear_149_7" x1="-0.23148" y1="17.8342" x2="23.4344" y2="-63.3006" gradientUnits="userSpaceOnUse">
<stop stop-color="#13B3D3"/>
<stop offset="1" stop-color="#13EDB1"/>
</linearGradient>
<linearGradient id="paint2_linear_149_7" x1="72.3592" y1="0" x2="72.3592" y2="144.718" gradientUnits="userSpaceOnUse">
<stop stop-color="#13EDB1"/>
<stop offset="1" stop-color="#13B3D3"/>
</linearGradient>
<linearGradient id="paint3_linear_149_7" x1="72.3592" y1="0" x2="72.3592" y2="124.518" gradientUnits="userSpaceOnUse">
<stop stop-color="#13EDB1"/>
<stop offset="1" stop-color="#13B3D3"/>
</linearGradient>
<linearGradient id="paint4_linear_149_7" x1="72.3592" y1="0" x2="72.3592" y2="124.518" gradientUnits="userSpaceOnUse">
<stop stop-color="#13EDB1"/>
<stop offset="1" stop-color="#13B3D3"/>
</linearGradient>
<linearGradient id="paint5_linear_149_7" x1="149.217" y1="0" x2="149.217" y2="374.353" gradientUnits="userSpaceOnUse">
<stop stop-color="#13EDB1"/>
<stop offset="1" stop-color="#17EDFE"/>
</linearGradient>
<linearGradient id="paint6_linear_149_7" x1="149.217" y1="0" x2="149.217" y2="374.353" gradientUnits="userSpaceOnUse">
<stop stop-color="#13EDB1"/>
<stop offset="1" stop-color="#17EDFE"/>
</linearGradient>
</defs>
</svg>
